X: 30434
T: Old Town
R: reel
M: 4/4
K: Gmajor
|:DG GG|F/G/A/B/ c2|BG GB|A/G/F/G/ A2|DG GG|F/G/A/B/ c2|BG A/G/F|G4:|
|:dB dB|c/B/A/B/ c2|BG GB|A/G/F/G/ A2|dB dB|c/B/A/B/ c2|BG A/G/F|G4:|

